#define AAlogo_width 141
#define AAlogo_height 149
static char AAlogo_bits[] = {
 0x00,0x00,0x00,0x00,0x00,0x00,0x00,0x00,0x00,0x00,0x00,0x00,0x00,0x00,0x00,
 0x00,0x00,0xe0,0x00,0x00,0x00,0x00,0x00,0x00,0x00,0x00,0x02,0x00,0x00,0x00,
 0x00,0x00,0x00,0x00,0x00,0xe0,0x00,0x00,0x00,0x00,0x00,0x00,0x00,0x00,0x06,
 0x00,0x00,0x00,0x00,0x00,0x00,0x00,0x00,0xe0,0x00,0x00,0x00,0x00,0x00,0x00,
 0x00,0x00,0x06,0x00,0x00,0x00,0x00,0x00,0x00,0x00,0x00,0xe0,0x00,0x00,0x00,
 0x00,0x00,0x00,0x00,0x00,0x0c,0x00,0x00,0x00,0x00,0x00,0x00,0x00,0x00,0xe0,
 0x00,0x00,0x00,0x00,0x00,0x00,0x00,0x40,0x3e,0x7f,0x00,0x00,0x00,0x00,0x00,
 0x00,0x00,0xe0,0x00,0x00,0x00,0x00,0x00,0x00,0x00,0x7c,0x3c,0x7f,0x28,0x00,
 0x00,0x00,0x00,0x00,0x00,0xe0,0x00,0x00,0x00,0x00,0x00,0x00,0x20,0x38,0xbc,
 0x6a,0xe1,0x03,0x00,0x00,0x00,0x00,0x00,0xe0,0x00,0x00,0x00,0x00,0x00,0x00,
 0x1c,0x0a,0x3c,0x00,0xe8,0x0f,0x00,0x00,0x00,0x00,0x00,0xe0,0x00,0x00,0x00,
 0x00,0x00,0x80,0x3f,0x00,0x3c,0x00,0x00,0x4f,0x00,0x00,0x00,0x00,0x00,0xe0,
 0x00,0x00,0x00,0x00,0x00,0xc0,0x0f,0x00,0x3c,0x00,0x00,0x10,0x02,0x00,0x00,
 0x00,0x00,0xe0,0x00,0x00,0x00,0x00,0x00,0xc0,0x00,0x40,0xbc,0x08,0x00,0x80,
 0x1c,0x00,0x00,0x00,0x00,0xe0,0x00,0x00,0x00,0x00,0x00,0x11,0x00,0x14,0x3c,
 0x02,0x00,0x00,0x7e,0x00,0x00,0x00,0x00,0xe0,0x00,0x00,0x00,0x00,0xc0,0x09,
 0x00,0xfc,0xbc,0x07,0x00,0x00,0xf8,0x01,0x00,0x00,0x00,0xe0,0x00,0x00,0x00,
 0x00,0xf0,0x01,0x00,0xfe,0xd8,0x1b,0x00,0x00,0xc0,0x04,0x00,0x00,0x00,0xe0,
 0x00,0x00,0x00,0x00,0x78,0x00,0x00,0x8e,0x7d,0x0c,0x00,0x04,0x00,0x01,0x00,
 0x00,0x00,0xe0,0x00,0x00,0x00,0x00,0x3c,0x00,0x00,0x06,0x39,0x08,0x00,0x1e,
 0x00,0x20,0x00,0x00,0x00,0xe0,0x00,0x00,0x00,0x00,0x0c,0x00,0x00,0x86,0x3a,
 0x04,0x00,0x7f,0x00,0xe8,0x00,0x00,0x00,0xe0,0x00,0x00,0x00,0x00,0x00,0xe0,
 0x00,0x08,0x1b,0x00,0x80,0xff,0x00,0xe0,0x01,0x00,0x00,0xe0,0x00,0x00,0x00,
 0x20,0x01,0xf8,0x01,0x00,0x1e,0x00,0xc0,0x7f,0x00,0xc0,0x03,0x00,0x00,0xe0,
 0x00,0x00,0x00,0x10,0x00,0xfc,0x03,0x00,0x1a,0x00,0xc0,0xff,0x00,0x00,0x07,
 0x00,0x00,0xe0,0x00,0x00,0x00,0x7c,0x00,0xfe,0x03,0x00,0x2e,0x00,0xe0,0x7b,
 0x00,0x00,0x0e,0x00,0x00,0xe0,0x00,0x00,0x00,0x1e,0x00,0x3f,0x00,0x00,0x59,
 0x00,0xf0,0x7b,0x00,0x00,0x24,0x00,0x00,0xe0,0x00,0x00,0x00,0x0f,0x00,0x1f,
 0x00,0x00,0x36,0x00,0xf8,0xf9,0x00,0x0e,0x00,0x00,0x00,0xe0,0x00,0x00,0x80,
 0x03,0x80,0x0f,0x00,0x00,0x36,0x04,0xfc,0x78,0x00,0x1f,0x80,0x00,0x00,0xe0,
 0x00,0x00,0x00,0x02,0x80,0x0f,0x00,0x20,0xfa,0x06,0xfe,0x79,0x80,0x3f,0x20,
 0x01,0x00,0xe0,0x00,0x00,0x00,0x00,0x80,0x0f,0x00,0xb0,0xb3,0x0d,0xff,0x7f,
 0xc0,0x7f,0x80,0x03,0x00,0xe0,0x00,0x00,0x00,0x80,0x01,0x0f,0x00,0xd0,0x73,
 0x0c,0xff,0x7f,0xe0,0xff,0x80,0x07,0x00,0xe0,0x00,0x00,0x00,0xc0,0x83,0x1f,
 0x30,0xf0,0x71,0x87,0x9f,0x7f,0xe0,0xf7,0x01,0x07,0x00,0xe0,0x00,0x00,0x20,
 0xe0,0x07,0x3f,0x30,0x60,0x32,0x00,0x0c,0x7c,0xf0,0xe3,0x03,0x0e,0x00,0xe0,
 0x00,0x00,0x18,0xc0,0x0f,0x7f,0x7c,0x00,0x30,0x00,0x00,0x78,0xf8,0xe1,0x03,
 0x1c,0x00,0xe0,0x00,0x00,0x0c,0x80,0x1f,0xfe,0x7f,0x00,0x10,0x00,0x00,0x7c,
 0xfc,0xc0,0x03,0x08,0x00,0xe0,0x00,0x00,0x06,0x80,0x3f,0xfc,0x3f,0x00,0x00,
 0x00,0x00,0x78,0xfe,0xc0,0x03,0x00,0x00,0xe0,0x00,0x00,0x07,0x0e,0x7e,0xf8,
 0x1f,0x00,0x00,0x00,0x00,0x70,0x7f,0xe0,0x03,0x00,0x00,0xe0,0x00,0x00,0x03,
 0x1e,0xfe,0xe0,0x07,0x00,0x00,0x00,0x00,0x00,0x3f,0xe0,0xc3,0xa0,0x00,0xe0,
 0x00,0x00,0x01,0x1f,0xfc,0x01,0x00,0x00,0x10,0x08,0x00,0x00,0x3f,0xf0,0xe3,
 0x00,0x01,0xe0,0x00,0x00,0x80,0x0f,0xf0,0x03,0x00,0x00,0x10,0x08,0x00,0x00,
 0xfc,0xfc,0xe1,0xc1,0x01,0xe0,0x00,0x00,0xc0,0x07,0xf0,0x03,0x00,0x20,0x10,
 0x08,0x04,0x00,0xf8,0xff,0xf0,0x83,0x03,0xe0,0x00,0x00,0xc0,0x1f,0xe0,0x07,
 0x00,0x20,0x30,0x08,0x04,0x00,0xf0,0xff,0xf8,0x01,0x03,0xe0,0x00,0x40,0xe0,
 0x3f,0xc0,0x07,0x00,0x60,0x30,0x0c,0x04,0x00,0xe0,0x3f,0xf8,0x00,0x07,0xe0,
 0x00,0x18,0xf0,0x7f,0x80,0x01,0x40,0x60,0x30,0x0c,0x06,0x02,0x80,0x0f,0x7c,
 0x00,0x0e,0xe0,0x00,0x18,0xf8,0xff,0x01,0x00,0xc0,0x60,0x30,0x0c,0x07,0x03,
 0x00,0x00,0x7e,0x00,0x0c,0xe0,0x00,0x1c,0x70,0xfc,0x03,0x00,0x80,0xc1,0x70,
 0x0c,0x83,0x01,0x00,0x00,0x3f,0x00,0x04,0xe0,0x00,0x0c,0x60,0xf0,0x07,0x00,
 0x80,0xc1,0x71,0x1e,0x87,0x01,0x01,0x80,0x1f,0x10,0x00,0xe0,0x00,0x0e,0x00,
 0xe0,0x1f,0x00,0x03,0xc3,0x71,0x8e,0xc3,0x80,0x00,0x80,0x8f,0x3f,0x20,0xe0,
 0x00,0x06,0x00,0xc0,0x1f,0x00,0x06,0xc7,0xff,0xff,0xe3,0xc0,0x00,0xc0,0xff,
 0x3f,0x00,0xe0,0x00,0x07,0x0e,0x00,0x0f,0x00,0x0c,0xef,0xff,0xff,0xf3,0x60,
 0x00,0xe0,0xff,0x7f,0x10,0xe0,0x00,0x00,0x3f,0x00,0x06,0x00,0x1c,0xfe,0xff,
 0xe8,0x7f,0x38,0x00,0xe0,0xff,0x3f,0x60,0xe0,0x00,0x00,0x1f,0x00,0x00,0x00,
 0x38,0xfe,0xf8,0xc0,0x7f,0x3c,0x00,0xe0,0xff,0x01,0x60,0xe0,0x00,0x82,0x0f,
 0x00,0x00,0x18,0x78,0x3f,0xf8,0xe0,0xf9,0x1e,0x10,0xc0,0x0f,0x00,0xe0,0xe0,
 0x00,0x80,0x07,0x10,0x00,0x30,0xf0,0x3f,0xf8,0xe0,0xe0,0x0f,0x0c,0x00,0x00,
 0x00,0xc0,0xe0,0x00,0x81,0x07,0xf0,0x00,0xe0,0xe0,0x3f,0xf8,0xe1,0xc0,0x0f,
 0x0e,0x00,0x00,0xc0,0xc1,0xe1,0xc0,0x80,0x07,0xf0,0x00,0xc0,0xf3,0x78,0xf8,
 0xe1,0xc0,0x8f,0x07,0x00,0x00,0xf8,0xc1,0xe1,0xc0,0x80,0x07,0xf0,0x00,0x80,
 0x77,0x70,0xf8,0x61,0xf0,0xff,0x03,0x00,0x00,0xff,0x83,0xe1,0xc0,0x80,0x0f,
 0xf0,0x40,0x80,0x3f,0x60,0xf8,0x71,0xf0,0xff,0x01,0x00,0xe0,0xff,0x03,0xe0,
 0xe0,0x80,0x1f,0xf8,0x80,0x01,0x3e,0xe0,0xf8,0x33,0xfc,0xf9,0x80,0x01,0xfc,
 0xff,0x83,0xe0,0xe0,0x00,0xff,0x7e,0x00,0x0f,0xfe,0xc0,0xf8,0x33,0xfe,0x71,
 0xe0,0x00,0xfe,0xdf,0x03,0xe0,0x60,0x00,0xff,0x7f,0x00,0x7c,0xff,0xc3,0xf9,
 0x13,0xff,0xe0,0x7c,0x00,0xfc,0x9f,0x07,0xe0,0x60,0x00,0xfe,0x3f,0x00,0xf8,
 0xff,0x87,0xf9,0x9b,0x7f,0xe0,0x3f,0x00,0x7c,0x9e,0x07,0xe0,0x50,0x00,0xfc,
 0x1f,0x00,0xf0,0xf3,0x1f,0xfb,0xef,0x7f,0xe0,0x0f,0x00,0x78,0x1e,0x07,0xe5,
 0x00,0x00,0xe0,0x07,0x00,0xc0,0xe3,0x7f,0xfb,0xef,0x3f,0xf0,0x07,0x00,0x78,
 0x1c,0x01,0xe7,0x00,0x00,0x00,0x00,0x10,0xc0,0xc1,0xff,0xfe,0xff,0x3f,0xfc,
 0x03,0x10,0x78,0x1c,0x00,0xe6,0x40,0x00,0x00,0x00,0xe0,0xe7,0x80,0xff,0xff,
 0xff,0x1f,0x7e,0xa7,0x0f,0xf8,0x00,0x00,0xe6,0x00,0x80,0x02,0x08,0x80,0xff,
 0x81,0xff,0xff,0xff,0x8f,0x1f,0xff,0x03,0x70,0x00,0x00,0xe6,0x20,0xe0,0x0f,
 0x0e,0x00,0xfe,0x03,0xff,0xff,0xff,0xef,0x03,0xfe,0x00,0x10,0x00,0x00,0xee,
 0x18,0xf0,0x0f,0x0f,0x00,0xf8,0x1f,0xfc,0xff,0xff,0xf7,0x00,0x3e,0x00,0x00,
 0x00,0x00,0xe6,0x30,0xf0,0xdf,0x0f,0x00,0xf0,0x7f,0xfc,0x7f,0xff,0x1f,0x00,
 0x0e,0x00,0xe0,0x0a,0x00,0xe6,0x38,0xf8,0xff,0x0f,0x00,0x70,0xfc,0xf9,0x7f,
 0xff,0x5f,0x00,0x0e,0x00,0xe0,0xff,0x1f,0xe8,0x38,0xf8,0xfc,0x07,0xf4,0x7f,
 0x80,0xff,0x3f,0xfe,0xff,0xff,0x1f,0x00,0xe0,0xff,0x1f,0xe0,0x18,0x78,0xfc,
 0x03,0xf0,0x3f,0x00,0xfc,0x3f,0xfe,0xff,0xff,0xff,0x3f,0xe0,0xff,0x1f,0xe2,
 0x38,0x78,0xfc,0x00,0x00,0x3f,0x00,0xff,0x3f,0xfc,0xff,0xff,0xff,0x07,0xe0,
 0xff,0x1f,0xe0,0x18,0xf8,0x7f,0x00,0x00,0x70,0xf0,0xff,0x0f,0xe0,0xff,0xff,
 0x7f,0x00,0x00,0xf0,0x1f,0xe8,0x10,0xf8,0xff,0x07,0x00,0x30,0xff,0xff,0x03,
 0xc0,0xff,0xff,0x1f,0x00,0x00,0xf0,0x07,0xe2,0x20,0xf8,0xff,0x07,0x00,0xf8,
 0xff,0xff,0x01,0xf8,0xff,0x3f,0x0c,0x00,0x00,0xf8,0x03,0xec,0x08,0xfc,0xff,
 0x07,0x00,0xff,0xff,0xff,0x3f,0xfc,0xff,0x03,0x7c,0x00,0x00,0xfe,0x00,0xee,
 0x00,0xf0,0xff,0x07,0xf0,0xff,0xff,0xff,0x3f,0xfe,0x3f,0x00,0xfc,0x07,0x00,
 0x7f,0x00,0xec,0x20,0x00,0x00,0x02,0xf4,0xff,0xff,0xff,0x7f,0xfe,0xbf,0x00,
 0xfe,0x3f,0xc0,0x1f,0x00,0xee,0x08,0x00,0x00,0x00,0x00,0x70,0x40,0xfd,0xff,
 0xfe,0xef,0x0f,0x0c,0x00,0xf0,0x0f,0x00,0xee,0x30,0x00,0x00,0x0e,0x00,0x60,
 0x00,0xf8,0xff,0xfe,0x9f,0xff,0x0f,0x00,0xf0,0xff,0x0f,0xe6,0x30,0x00,0x00,
 0x0f,0x00,0x78,0x00,0xef,0xff,0xfe,0x3f,0xfc,0x0f,0x00,0xf0,0xff,0x0f,0xe4,
 0x30,0x00,0x80,0x0f,0x00,0xfe,0xc0,0xf3,0xff,0xff,0x7f,0xf0,0x3f,0x00,0xf0,
 0xff,0x0f,0xe8,0x30,0x00,0xe0,0x0f,0x80,0xff,0xf8,0xf9,0xff,0xff,0xff,0x80,
 0xff,0x00,0xf0,0xff,0x0f,0xe0,0x70,0x00,0xf0,0x0f,0xf0,0xcb,0x7f,0xf8,0xff,
 0xff,0xff,0x01,0xff,0x03,0x00,0xe8,0x0f,0xe0,0x30,0x00,0xfc,0x03,0x00,0xc0,
 0x3f,0xfc,0xff,0xff,0xff,0x83,0xc3,0x0f,0x00,0x00,0x00,0xe4,0x70,0x00,0xfe,
 0x03,0x00,0xc0,0x0f,0xfc,0xff,0x7f,0xff,0x83,0x03,0x00,0x00,0x00,0x00,0xe1,
 0x20,0x80,0xff,0x03,0x00,0xf0,0x07,0xfe,0xeb,0x5f,0xfc,0x8f,0x07,0x00,0x00,
 0x00,0x00,0xe4,0x00,0xc0,0x9f,0x07,0x00,0xf8,0x07,0xff,0xe9,0xdf,0xf8,0xcf,
 0x1f,0x00,0x1c,0x00,0x00,0xe3,0x80,0xe0,0x8f,0x07,0x00,0x7e,0x07,0xff,0xec,
 0x9f,0xe1,0xff,0x3f,0x00,0xfc,0x80,0x01,0xe3,0x20,0xe0,0x03,0x07,0x00,0x0f,
 0x8e,0x7f,0xcc,0x9f,0x83,0xff,0x7c,0x00,0xfc,0x87,0x07,0xe3,0x00,0xe0,0xff,
 0x3f,0x80,0x01,0xdf,0x1f,0xc6,0x1f,0x03,0x7f,0xe0,0x00,0xfe,0xdf,0x87,0xe3,
 0x00,0xc0,0xff,0x7f,0x00,0x80,0xff,0x0f,0xc6,0x1f,0x07,0xfc,0x00,0x03,0xf8,
 0xff,0x83,0xe3,0xc0,0xc1,0xff,0x7f,0x00,0x80,0xff,0x07,0xc6,0x1f,0x0f,0xfc,
 0x01,0x00,0xe0,0xff,0x83,0xe1,0xc0,0xc1,0xff,0x7f,0x00,0xe0,0xf1,0x03,0x87,
 0x1f,0x0e,0xef,0x03,0x00,0x00,0xff,0x01,0xe1,0x80,0x01,0x40,0xff,0x00,0xe0,
 0xf0,0x81,0x87,0x1f,0x9e,0x8f,0x07,0x00,0x00,0xf8,0x41,0xe0,0x80,0x01,0x00,
 0x00,0x00,0x30,0xf0,0x87,0x83,0x0f,0xfc,0x0f,0x0e,0x00,0x00,0xf0,0x01,0xe0,
 0x80,0x03,0x00,0x00,0x00,0x08,0x78,0x9f,0x83,0x1f,0xfc,0x0f,0x08,0x00,0x0f,
 0xf0,0x00,0xe0,0x00,0x03,0x00,0x00,0x00,0x04,0x3c,0xff,0x03,0x0f,0x7e,0x1e,
 0x10,0xc0,0x7f,0xf0,0xa0,0xe0,0x00,0x07,0x00,0x00,0x00,0x00,0x1c,0xff,0x07,
 0xdf,0x7f,0x38,0x20,0xf0,0xff,0x70,0x00,0xe0,0x00,0x00,0x00,0x00,0x00,0x00,
 0x06,0xef,0xff,0xff,0x77,0x30,0x00,0xf0,0xff,0x41,0x70,0xe0,0x00,0x00,0x00,
 0x00,0x00,0x00,0x06,0xc7,0xff,0xff,0xf3,0x60,0x00,0xf8,0xff,0x03,0x30,0xe0,
 0x00,0x02,0x00,0x20,0x00,0x00,0x81,0xe3,0xf9,0x9f,0xe3,0xc0,0x00,0x7c,0xf0,
 0x03,0x38,0xe0,0x00,0x10,0x00,0x20,0x00,0x80,0x80,0xe1,0x78,0x8e,0xc3,0x80,
 0x00,0x3c,0xe0,0x07,0x38,0xe0,0x00,0x00,0x00,0xe0,0x07,0x00,0x80,0xe1,0x38,
 0x8e,0x83,0x01,0x00,0x3e,0xc0,0x07,0x1c,0xe0,0x00,0x38,0x00,0xe0,0x03,0x00,
 0xc0,0x60,0x38,0x0c,0x87,0x01,0x00,0x1e,0xc0,0x07,0x0c,0xe0,0x00,0x38,0x00,
 0xf8,0x01,0x00,0x40,0x60,0x30,0x0c,0x02,0x01,0x00,0x1e,0x80,0x07,0x08,0xe0,
 0x00,0x70,0x00,0xfc,0x03,0x00,0x00,0x20,0x18,0x0c,0x06,0x02,0x00,0x3e,0xc0,
 0x07,0x00,0xe0,0x00,0x60,0x00,0xe0,0x07,0x00,0x00,0x30,0x10,0x0c,0x06,0x00,
 0x00,0x3e,0xc0,0x03,0x04,0xe0,0x00,0xe0,0x00,0x60,0x04,0x00,0x00,0x10,0x18,
 0x0c,0x04,0x00,0x00,0x7c,0xe0,0x03,0x00,0xe0,0x00,0xc0,0x00,0x60,0x00,0x00,
 0x00,0x00,0x10,0x08,0x00,0x00,0x04,0xfc,0xf9,0x01,0x02,0xe0,0x00,0x40,0x00,
 0x00,0x00,0x00,0x00,0x00,0x00,0x08,0x00,0x00,0x7f,0xfc,0xff,0xc1,0x00,0xe0,
 0x00,0x00,0x02,0x00,0x60,0x04,0x00,0x00,0x00,0x00,0x00,0xc0,0xff,0xf0,0xff,
 0xe0,0x00,0xe0,0x00,0x00,0x00,0x00,0xc0,0x07,0x00,0x00,0x00,0x00,0x00,0xe0,
 0xff,0xf0,0x7f,0x60,0x00,0xe0,0x00,0x00,0x01,0x00,0xc0,0x07,0x00,0x00,0x00,
 0x00,0x00,0xf0,0xff,0xc1,0x1f,0x70,0x00,0xe0,0x00,0x00,0x08,0x00,0xe0,0x07,
 0x00,0x00,0x00,0x00,0x00,0xf8,0xf1,0x03,0x00,0x38,0x00,0xe0,0x00,0x00,0x1c,
 0x00,0xf0,0x0f,0x00,0x00,0x00,0x00,0x00,0xf8,0xe0,0x03,0x00,0x18,0x00,0xe0,
 0x00,0x00,0x38,0x00,0xa0,0x0b,0x00,0x00,0x00,0x00,0x70,0x78,0xe0,0x07,0x00,
 0x10,0x00,0xe0,0x00,0x00,0x70,0x00,0x80,0x01,0x10,0x00,0x1e,0x40,0xf8,0xf8,
 0xc0,0x07,0x00,0x00,0x00,0xe0,0x00,0x00,0xf0,0x00,0x80,0x81,0x1b,0x80,0xff,
 0xfc,0xf8,0xf8,0x80,0x0f,0x00,0x04,0x00,0xe0,0x00,0x00,0xc0,0x01,0x00,0x00,
 0x1f,0xc0,0xff,0xf9,0xf9,0xf8,0x80,0x1f,0x00,0x00,0x00,0xe0,0x00,0x00,0xc0,
 0x00,0x00,0x00,0x3e,0xc0,0xff,0xf3,0xfb,0xf0,0x01,0x1f,0xc0,0x00,0x00,0xe0,
 0x00,0x00,0x00,0x00,0x00,0x00,0xfe,0xe0,0xe3,0xe1,0xff,0xf0,0x03,0x1f,0xe0,
 0x00,0x00,0xe0,0x00,0x00,0x00,0x08,0x00,0x00,0x3f,0xe0,0x83,0xc0,0xff,0xe0,
 0x03,0x0e,0x70,0x00,0x00,0xe0,0x00,0x00,0x00,0x02,0x00,0x80,0x1d,0xe0,0x03,
 0x80,0xff,0xe1,0x07,0x04,0x3c,0x00,0x00,0xe0,0x00,0x00,0x00,0x60,0x00,0x00,
 0x18,0xe0,0x0f,0xc0,0xff,0xc1,0x07,0x00,0x1e,0x00,0x00,0xe0,0x00,0x00,0x00,
 0x70,0x00,0x00,0x10,0xc0,0x3f,0xc0,0xff,0x81,0x0f,0x00,0x04,0x00,0x00,0xe0,
 0x00,0x00,0x00,0xe0,0x01,0x00,0x00,0x80,0x7f,0xe0,0xe3,0x81,0x1f,0x00,0x00,
 0x00,0x00,0xe0,0x00,0x00,0x00,0xc0,0x07,0x00,0x00,0x00,0xff,0xe0,0xe3,0x01,
 0x0f,0x00,0x02,0x00,0x00,0xe0,0x00,0x00,0x00,0x00,0x07,0x00,0x00,0x00,0xf8,
 0xe0,0xe3,0x03,0x03,0x90,0x00,0x00,0x00,0xe0,0x00,0x00,0x00,0x00,0x02,0x00,
 0x00,0x00,0xf8,0xe0,0xf7,0x03,0x00,0x3c,0x00,0x00,0x00,0xe0,0x00,0x00,0x00,
 0x00,0x40,0x00,0x00,0xc0,0xf9,0xe0,0xff,0x03,0x00,0x1f,0x00,0x00,0x00,0xe0,
 0x00,0x00,0x00,0x00,0x10,0x01,0x00,0xe0,0xff,0xc0,0xff,0x03,0x80,0x07,0x00,
 0x00,0x00,0xe0,0x00,0x00,0x00,0x00,0x80,0x07,0x00,0xe0,0x7f,0x80,0xff,0x00,
 0x80,0x01,0x00,0x00,0x00,0xe0,0x00,0x00,0x00,0x00,0x00,0x1f,0x00,0x80,0x3f,
 0x00,0x04,0x00,0x80,0x00,0x00,0x00,0x00,0xe0,0x00,0x00,0x00,0x00,0x00,0x7c,
 0x00,0x00,0x0a,0x00,0x00,0x00,0x21,0x00,0x00,0x00,0x00,0xe0,0x00,0x00,0x00,
 0x00,0x00,0x30,0x02,0x00,0x00,0x00,0x00,0xe0,0x0b,0x00,0x00,0x00,0x00,0xe0,
 0x00,0x00,0x00,0x00,0x00,0x80,0x30,0x00,0x00,0x00,0x00,0xfc,0x03,0x00,0x00,
 0x00,0x00,0xe0,0x00,0x00,0x00,0x00,0x00,0x00,0xf8,0x01,0x00,0x00,0x80,0x78,
 0x00,0x00,0x00,0x00,0x00,0xe0,0x00,0x00,0x00,0x00,0x00,0x00,0xf0,0x47,0x00,
 0x00,0x1f,0x08,0x00,0x00,0x00,0x00,0x00,0xe0,0x00,0x00,0x00,0x00,0x00,0x00,
 0x00,0x03,0xfe,0xc0,0x5f,0x00,0x00,0x00,0x00,0x00,0x00,0xe0,0x00,0x00,0x00,
 0x00,0x00,0x00,0x00,0x90,0xfe,0xe0,0x0b,0x00,0x00,0x00,0x00,0x00,0x00,0xe0,
 0x00,0x00,0x00,0x00,0x00,0x00,0x00,0x00,0x00,0x0a,0x00,0x00,0x00,0x00,0x00,
 0x00,0x00,0xe0,0x00,0x00,0x00,0x00,0x00,0x00,0x00,0x00,0x80,0x00,0x00,0x00,
 0x00,0x00,0x00,0x00,0x00,0xe0,0x00,0x00,0x00,0x00,0x00,0x00,0x00,0x00,0x00,
 0x00,0x00,0x00,0x00,0x00,0x00,0x00,0x00,0xe0,0x00,0x00,0x00,0x00,0x00,0x00,
 0x00,0x00,0x00,0x00,0x00,0x00,0x00,0x00,0x00,0x00,0x00,0xe0,0x00,0x00,0x00,
 0x00,0x00,0x00,0x00,0x00,0x00,0x00,0x00,0x00,0x00,0x00,0x00,0x00,0x00,0xe0,
 0x00,0x00,0x00,0x00,0x00,0x00,0x00,0x00,0x00,0x00,0x00,0x00,0x00,0x00,0x00,
 0x00,0x00,0xe0,0x00,0x00,0x00,0x00,0x00,0x00,0x00,0x00,0x00,0x00,0x00,0x00,
 0x00,0x00,0x00,0x00,0x00,0xe0,0x00,0x00,0x00,0x00,0x00,0x00,0x00,0x00,0x00,
 0x00,0x00,0x00,0x00,0x00,0x00,0x00,0x00,0xe0,0x00,0x00,0x00,0x00,0x00,0x00,
 0x00,0x00,0x00,0x00,0x00,0x00,0x00,0x00,0x00,0x00,0x00,0xe0};
