#define hands_width 104
#define hands_height 48
static char hands_bits[] = {
 0x00,0x00,0x00,0x00,0x00,0x00,0x00,0x00,0x00,0x00,0x00,0x00,0x00,0x00,0x00,
 0x00,0x00,0x00,0x00,0x00,0x00,0x00,0x90,0x00,0x00,0x00,0x00,0x00,0x00,0x00,
 0x00,0x00,0x00,0x00,0x00,0x04,0x08,0x00,0x00,0x00,0x00,0x00,0x00,0x00,0x00,
 0x00,0x00,0x00,0x01,0x40,0x50,0x40,0x00,0x00,0x00,0x00,0x00,0x00,0x00,0x00,
 0x20,0x00,0x12,0x04,0x00,0x00,0x00,0x00,0x00,0x00,0x00,0x00,0x00,0x08,0x20,
 0x00,0x20,0x04,0x00,0x00,0x00,0x00,0x00,0x00,0x00,0x00,0x01,0x00,0x10,0x01,
 0x20,0x00,0x00,0x00,0x00,0x00,0x00,0x00,0x10,0x01,0x09,0x01,0x20,0x00,0x00,
 0x00,0x00,0x00,0x00,0x00,0x00,0x04,0x40,0x00,0x00,0x00,0x81,0x00,0x00,0x00,
 0x00,0x00,0x00,0x00,0x00,0x12,0x00,0x48,0x24,0x48,0x00,0x00,0x00,0x00,0x00,
 0x00,0x40,0x40,0x02,0x20,0x01,0x0b,0x04,0x00,0x00,0x00,0x00,0x00,0x00,0x00,
 0x04,0x00,0x04,0x00,0x00,0x01,0x00,0x00,0x00,0x00,0x00,0x00,0x00,0x00,0x04,
 0x01,0x40,0x00,0x00,0x00,0x20,0x01,0x00,0x00,0x00,0x00,0x20,0x28,0x00,0x09,
 0x00,0x00,0x00,0x08,0x10,0x00,0x00,0x00,0x00,0x09,0x12,0x20,0x20,0x00,0x00,
 0x00,0x00,0x00,0x00,0x00,0x00,0x00,0x00,0x40,0x08,0x00,0x00,0x00,0x40,0x01,
 0x82,0x08,0x00,0x00,0x40,0x00,0x00,0x05,0x20,0x00,0x00,0x00,0x42,0x20,0x02,
 0x01,0x00,0x00,0x40,0x03,0x10,0x09,0x00,0x00,0x00,0x08,0x00,0x40,0x00,0x00,
 0x00,0x09,0x68,0xa5,0xa2,0x00,0x00,0x20,0x08,0x04,0x02,0x00,0x00,0x00,0x80,
 0x00,0x00,0x00,0x00,0x00,0x08,0x88,0x00,0x02,0x10,0x00,0x00,0x28,0x0a,0x00,
 0x02,0x00,0x00,0x02,0x0a,0x20,0x10,0x02,0x00,0x80,0x04,0xa0,0xb6,0x40,0x02,
 0x00,0x00,0x00,0x00,0x82,0x00,0x00,0x00,0x00,0x00,0x00,0x10,0x00,0x00,0x80,
 0x88,0x84,0x00,0x80,0x00,0x00,0x80,0x00,0x00,0x00,0x00,0x00,0x22,0x14,0x00,
 0x84,0x24,0x00,0x00,0x22,0x24,0x00,0x02,0x04,0x00,0x00,0x2a,0x20,0x41,0x00,
 0x00,0x00,0x00,0x00,0x49,0x80,0x00,0x00,0x50,0x40,0x08,0x10,0x50,0x00,0x00,
 0xa0,0x0a,0x00,0x90,0x02,0x00,0x00,0x04,0x00,0xa8,0x04,0x00,0x00,0x08,0x80,
 0x0a,0x06,0x08,0x00,0x00,0x00,0x82,0x02,0x02,0x02,0x00,0x00,0x20,0xa0,0x10,
 0x00,0x00,0x00,0x00,0x14,0x40,0x00,0x00,0x00,0x00,0x2d,0x00,0x40,0x14,0x00,
 0x00,0x90,0x00,0x14,0x20,0x28,0x00,0x40,0x80,0x50,0x40,0x01,0x00,0x00,0x00,
 0x00,0x01,0x81,0x02,0x00,0x00,0x50,0x4a,0x2c,0x51,0x00,0x00,0x00,0x11,0x00,
 0x08,0x80,0x0c,0x00,0x04,0x00,0x03,0x01,0x00,0x00,0x20,0x00,0x44,0x80,0x11,
 0x82,0x00,0x00,0x42,0x42,0x04,0x02,0x00,0x00,0x80,0x00,0x24,0x04,0x01,0x08,
 0x84,0x00,0x00,0x90,0x00,0x00,0x00,0x29,0x15,0x00,0x50,0x00,0x00,0x00,0x24,
 0x14,0x20,0x00,0x00,0x00,0x00,0x20,0x54,0x40,0xb5,0x01,0x20,0x02,0x00,0x04,
 0x00,0x00,0x00,0x00,0x80,0x02,0x05,0x00,0x04,0x00,0x00,0x21,0x41,0x04,0x00,
 0x00,0x92,0x00,0x01,0x08,0x04,0x10,0x00,0x08,0x40,0x20,0x00,0x00,0x00,0x00,
 0x44,0x54,0x52,0x41,0x00,0x00,0x20,0x00,0x10,0x01,0x00,0x00,0x10,0x00,0x80,
 0x00,0xaa,0x14,0x00,0x00,0x15,0x00,0x00,0x00,0x00,0x00,0x20,0x50,0x95,0x00,
 0x02,0x00,0x00,0x00,0x00,0x00,0x00,0x00,0x80,0x04,0x01,0x20,0x00,0x00,0x00,
 0x00,0x00,0x00,0x00,0x00,0x00,0x00,0x00,0x00,0x00,0x11,0x00,0x00,0x00,0x00,
 0x00,0x00,0x00,0x00,0x00,0x08,0x08,0x04,0x02,0x02,0x00,0x00,0x00,0x00,0x00,
 0x00,0x00,0x00,0x80,0x40,0x00,0x80,0x00,0x00,0x00,0x00,0x00,0x00,0x00,0x00,
 0x00,0x00,0x14,0x20,0x05,0x00,0x00,0x00,0x00,0x00,0x00,0x00,0x00,0x00,0x00,
 0x00,0x05,0x01,0x00,0x00,0x00,0x00,0x00,0x00};
