#define xxx_width 30
#define xxx_height 23
static unsigned char xxx_bits[] = {
   0x00, 0x00, 0x00, 0x00, 0x00, 0x00, 0x00, 0x00, 0x00, 0x00, 0x00, 0x00,
   0x00, 0xfc, 0x01, 0x00, 0x00, 0x06, 0x02, 0x00, 0x00, 0x0a, 0x04, 0x00,
   0x70, 0xfa, 0x07, 0x00, 0xf8, 0x07, 0xf8, 0x01, 0x08, 0x04, 0x10, 0x02,
   0xf8, 0xe3, 0xf3, 0x07, 0x08, 0xfa, 0x0f, 0x04, 0x08, 0xb9, 0x0e, 0x04,
   0xf8, 0x1d, 0xdd, 0x07, 0xf8, 0x8d, 0xda, 0x07, 0xf8, 0x1d, 0xdd, 0x07,
   0xf8, 0xad, 0xda, 0x07, 0xf8, 0x5d, 0xdd, 0x07, 0xf8, 0xbb, 0xee, 0x07,
   0xf8, 0xfb, 0xef, 0x07, 0xf8, 0xef, 0xfb, 0x07, 0xf0, 0x00, 0x00, 0x00,
   0x00, 0x00, 0x00, 0x00, 0x00, 0x00, 0x00, 0x00};
